X:131
T:Katie Scroggie
Z:Jack Campin - http://www.campin.me.uk
S:Blaikie MS (NLS MS.1578) p39, Blaikie #125
M:C
L:1/8
V:1 midi program 1 74
V:2 midi program 1 46 bass middle = d transpose -24
Q:1/4=90
K:F
[V:1] E|F>GFE D2d>f|cAGF C3 D/E/|F>GFE D2df |{e}cA G>F F3||
[V:2] z|f2 A2 B2z2 |F2A2 c2z2   |f2 A2 B2B2 |   c2 c2  f3||
%
[V:1] A|c>dcA BAGF |GAcC C3 D/E/|F>GFE D2d>f|{e}cA G>F F3|]
[V:2] z|F2 f2 F2f2 |c2C2 c2z2   |f2A2  B2B2 |   c2 c2  f3|]
W:Transcription (c) Jack Campin 2009, no mirroring or republication without permission

